img/logo.svg

<svg width="283" height="604" viewBox="0 0 283 604" fill="none" xmlns="http://www.w3.org/2000/svg">
<path d="M269.201 116.502V131.952H148.176V477H132.726V131.952H11.702V116.502H269.201Z" fill="#7F3333"/>
<path d="M60.2547 461.55H249.774L140.594 161.307L25.7499 477H9.26995L140.594 115.987L271.918 477H60.2547V461.55Z" fill="#AF9880"/>
</svg>

<svg width="0" height="0" class="hidden">
  <symbol viewBox="0 0 283 604" fill="none" xmlns="http://www.w3.org/2000/svg" id="logo">
    <path d="M269.201 116.502v15.45H148.176V477h-15.45V131.952H11.702v-15.45h257.499z" fill="#7F3333"></path>
    <path d="M60.255 461.55h189.519l-109.18-300.243L25.75 477H9.27l131.324-361.013L271.918 477H60.255v-15.45z" fill="#AF9880"></path>
  </symbol>
</svg>
